images/16759136.svg

<?xml version="1.0" encoding="UTF-8"?>
<svg xmlns="http://www.w3.org/2000/svg" xmlns:xlink="http://www.w3.org/1999/xlink" width="300pt" height="300pt" viewBox="0 0 300 300" version="1.1">
<defs>
<g>
<symbol overflow="visible" id="glyph0-0">
<path style="stroke:none;" d="M 0.453125 1.59375 L 0.453125 -6.34375 L 4.953125 -6.34375 L 4.953125 1.59375 Z M 0.953125 1.09375 L 4.453125 1.09375 L 4.453125 -5.84375 L 0.953125 -5.84375 Z M 0.953125 1.09375 "/>
</symbol>
<symbol overflow="visible" id="glyph0-1">
<path style="stroke:none;" d="M 3.546875 -5.953125 C 2.898438 -5.953125 2.382812 -5.710938 2 -5.234375 C 1.625 -4.753906 1.4375 -4.101562 1.4375 -3.28125 C 1.4375 -2.445312 1.625 -1.789062 2 -1.3125 C 2.382812 -0.832031 2.898438 -0.59375 3.546875 -0.59375 C 4.191406 -0.59375 4.703125 -0.832031 5.078125 -1.3125 C 5.453125 -1.789062 5.640625 -2.445312 5.640625 -3.28125 C 5.640625 -4.101562 5.453125 -4.753906 5.078125 -5.234375 C 4.703125 -5.710938 4.191406 -5.953125 3.546875 -5.953125 Z M 3.546875 -6.6875 C 4.460938 -6.6875 5.195312 -6.375 5.75 -5.75 C 6.300781 -5.132812 6.578125 -4.3125 6.578125 -3.28125 C 6.578125 -2.238281 6.300781 -1.410156 5.75 -0.796875 C 5.195312 -0.179688 4.460938 0.125 3.546875 0.125 C 2.617188 0.125 1.878906 -0.179688 1.328125 -0.796875 C 0.773438 -1.410156 0.5 -2.238281 0.5 -3.28125 C 0.5 -4.3125 0.773438 -5.132812 1.328125 -5.75 C 1.878906 -6.375 2.617188 -6.6875 3.546875 -6.6875 Z M 3.546875 -6.6875 "/>
</symbol>
<symbol overflow="visible" id="glyph0-2">
<path style="stroke:none;" d="M 0.890625 -6.5625 L 1.765625 -6.5625 L 1.765625 -3.875 L 5 -3.875 L 5 -6.5625 L 5.890625 -6.5625 L 5.890625 0 L 5 0 L 5 -3.125 L 1.765625 -3.125 L 1.765625 0 L 0.890625 0 Z M 0.890625 -6.5625 "/>
</symbol>
</g>
</defs>
<g id="surface54457">
<rect x="0" y="0" width="300" height="300" style="fill:rgb(100%,100%,100%);fill-opacity:1;stroke:none;"/>
<path style="fill:none;stroke-width:1.2;stroke-linecap:butt;stroke-linejoin:miter;stroke:rgb(0%,0%,0%);stroke-opacity:1;stroke-miterlimit:10;" d="M 35.25 142.171875 L 49.996094 154.011719 "/>
<path style="fill:none;stroke-width:1.2;stroke-linecap:butt;stroke-linejoin:miter;stroke:rgb(0%,0%,0%);stroke-opacity:1;stroke-miterlimit:10;" d="M 49.996094 154.011719 L 67.625 147.160156 "/>
<path style="fill:none;stroke-width:1.2;stroke-linecap:butt;stroke-linejoin:miter;stroke:rgb(0%,0%,0%);stroke-opacity:1;stroke-miterlimit:10;" d="M 67.625 147.160156 L 82.371094 159.003906 "/>
<path style="fill:none;stroke-width:1.2;stroke-linecap:butt;stroke-linejoin:miter;stroke:rgb(0%,0%,0%);stroke-opacity:1;stroke-miterlimit:10;" d="M 82.371094 159.003906 L 100 152.152344 "/>
<path style="fill:none;stroke-width:1.2;stroke-linecap:butt;stroke-linejoin:miter;stroke:rgb(0%,0%,0%);stroke-opacity:1;stroke-miterlimit:10;" d="M 100 152.152344 L 117.625 145.300781 "/>
<path style="fill:none;stroke-width:1.2;stroke-linecap:butt;stroke-linejoin:miter;stroke:rgb(0%,0%,0%);stroke-opacity:1;stroke-miterlimit:10;" d="M 103.371094 155.613281 L 117.476562 150.132812 "/>
<path style="fill:none;stroke-width:1.2;stroke-linecap:butt;stroke-linejoin:miter;stroke:rgb(0%,0%,0%);stroke-opacity:1;stroke-miterlimit:10;" d="M 100.148438 147.320312 L 114.25 141.839844 "/>
<path style="fill:none;stroke-width:1.2;stroke-linecap:butt;stroke-linejoin:miter;stroke:rgb(0%,0%,0%);stroke-opacity:1;stroke-miterlimit:10;" d="M 117.625 145.300781 L 135.253906 138.453125 "/>
<path style="fill:none;stroke-width:1.2;stroke-linecap:butt;stroke-linejoin:miter;stroke:rgb(0%,0%,0%);stroke-opacity:1;stroke-miterlimit:10;" d="M 135.253906 138.453125 L 138.136719 119.761719 "/>
<path style="fill:none;stroke-width:1.2;stroke-linecap:butt;stroke-linejoin:miter;stroke:rgb(100%,0%,0%);stroke-opacity:1;stroke-miterlimit:10;" d="M 150 150.292969 L 142.625 144.371094 "/>
<path style="fill:none;stroke-width:1.2;stroke-linecap:butt;stroke-linejoin:miter;stroke:rgb(0%,0%,0%);stroke-opacity:1;stroke-miterlimit:10;" d="M 142.625 144.371094 L 135.253906 138.453125 "/>
<path style="fill:none;stroke-width:1.2;stroke-linecap:butt;stroke-linejoin:miter;stroke:rgb(0%,0%,0%);stroke-opacity:1;stroke-miterlimit:10;" d="M 138.136719 119.761719 L 155.761719 112.910156 "/>
<path style="fill:none;stroke-width:1.2;stroke-linecap:butt;stroke-linejoin:miter;stroke:rgb(0%,0%,0%);stroke-opacity:1;stroke-miterlimit:10;" d="M 141.511719 123.222656 L 155.613281 117.742188 "/>
<path style="fill:none;stroke-width:1.2;stroke-linecap:butt;stroke-linejoin:miter;stroke:rgb(0%,0%,0%);stroke-opacity:1;stroke-miterlimit:10;" d="M 155.761719 112.910156 L 170.507812 124.75 "/>
<path style="fill:none;stroke-width:1.2;stroke-linecap:butt;stroke-linejoin:miter;stroke:rgb(0%,0%,0%);stroke-opacity:1;stroke-miterlimit:10;" d="M 170.507812 124.75 L 167.628906 143.441406 "/>
<path style="fill:none;stroke-width:1.2;stroke-linecap:butt;stroke-linejoin:miter;stroke:rgb(0%,0%,0%);stroke-opacity:1;stroke-miterlimit:10;" d="M 170.507812 124.75 L 179.324219 121.328125 "/>
<path style="fill:none;stroke-width:1.2;stroke-linecap:butt;stroke-linejoin:miter;stroke:rgb(100%,0%,0%);stroke-opacity:1;stroke-miterlimit:10;" d="M 179.324219 121.328125 L 188.136719 117.902344 "/>
<path style="fill:none;stroke-width:1.2;stroke-linecap:butt;stroke-linejoin:miter;stroke:rgb(0%,0%,0%);stroke-opacity:1;stroke-miterlimit:10;" d="M 167.628906 143.441406 L 158.8125 146.867188 "/>
<path style="fill:none;stroke-width:1.2;stroke-linecap:butt;stroke-linejoin:miter;stroke:rgb(100%,0%,0%);stroke-opacity:1;stroke-miterlimit:10;" d="M 158.8125 146.867188 L 150 150.292969 "/>
<path style="fill:none;stroke-width:1.2;stroke-linecap:butt;stroke-linejoin:miter;stroke:rgb(0%,0%,0%);stroke-opacity:1;stroke-miterlimit:10;" d="M 167.628906 143.441406 L 182.375 155.285156 "/>
<path style=" stroke:none;fill-rule:nonzero;fill:rgb(100%,100%,100%);fill-opacity:1;" d="M 146 144.792969 L 154 144.792969 L 154 155.792969 L 146 155.792969 Z M 146 144.792969 "/>
<g style="fill:rgb(100%,0%,0%);fill-opacity:1;">
  <use xlink:href="#glyph0-1" x="146" y="153.456055"/>
</g>
<path style="fill:none;stroke-width:1.2;stroke-linecap:butt;stroke-linejoin:miter;stroke:rgb(0%,0%,0%);stroke-opacity:1;stroke-miterlimit:10;" d="M 182.375 155.285156 L 180.933594 164.628906 "/>
<path style="fill:none;stroke-width:1.2;stroke-linecap:butt;stroke-linejoin:miter;stroke:rgb(100%,0%,0%);stroke-opacity:1;stroke-miterlimit:10;" d="M 180.933594 164.628906 L 179.492188 173.976562 "/>
<path style=" stroke:none;fill-rule:nonzero;fill:rgb(100%,100%,100%);fill-opacity:1;" d="M 172.492188 168.476562 L 187.492188 168.476562 L 187.492188 179.476562 L 172.492188 179.476562 Z M 172.492188 168.476562 "/>
<g style="fill:rgb(100%,0%,0%);fill-opacity:1;">
  <use xlink:href="#glyph0-2" x="172.492188" y="177.139648"/>
  <use xlink:href="#glyph0-1" x="179.506836" y="177.139648"/>
</g>
<path style="fill:none;stroke-width:1.2;stroke-linecap:butt;stroke-linejoin:miter;stroke:rgb(100%,0%,0%);stroke-opacity:1;stroke-miterlimit:10;" d="M 188.136719 117.902344 L 195.511719 123.824219 "/>
<path style="fill:none;stroke-width:1.2;stroke-linecap:butt;stroke-linejoin:miter;stroke:rgb(0%,0%,0%);stroke-opacity:1;stroke-miterlimit:10;" d="M 195.511719 123.824219 L 202.882812 129.742188 "/>
<path style=" stroke:none;fill-rule:nonzero;fill:rgb(100%,100%,100%);fill-opacity:1;" d="M 184.136719 112.402344 L 192.136719 112.402344 L 192.136719 123.402344 L 184.136719 123.402344 Z M 184.136719 112.402344 "/>
<g style="fill:rgb(100%,0%,0%);fill-opacity:1;">
  <use xlink:href="#glyph0-1" x="184.136719" y="121.06543"/>
</g>
<path style="fill:none;stroke-width:1.2;stroke-linecap:butt;stroke-linejoin:miter;stroke:rgb(0%,0%,0%);stroke-opacity:1;stroke-miterlimit:10;" d="M 202.882812 129.742188 L 200 148.433594 "/>
<path style="fill:none;stroke-width:1.2;stroke-linecap:butt;stroke-linejoin:miter;stroke:rgb(0%,0%,0%);stroke-opacity:1;stroke-miterlimit:10;" d="M 206.992188 132.289062 L 204.6875 147.242188 "/>
<path style="fill:none;stroke-width:1.2;stroke-linecap:butt;stroke-linejoin:miter;stroke:rgb(0%,0%,0%);stroke-opacity:1;stroke-miterlimit:10;" d="M 220.511719 122.894531 L 202.882812 129.742188 "/>
<path style="fill:none;stroke-width:1.2;stroke-linecap:butt;stroke-linejoin:miter;stroke:rgb(0%,0%,0%);stroke-opacity:1;stroke-miterlimit:10;" d="M 200 148.433594 L 214.75 160.273438 "/>
<path style="fill:none;stroke-width:1.2;stroke-linecap:butt;stroke-linejoin:miter;stroke:rgb(0%,0%,0%);stroke-opacity:1;stroke-miterlimit:10;" d="M 214.75 160.273438 L 232.375 153.425781 "/>
<path style="fill:none;stroke-width:1.2;stroke-linecap:butt;stroke-linejoin:miter;stroke:rgb(0%,0%,0%);stroke-opacity:1;stroke-miterlimit:10;" d="M 214.898438 155.441406 L 229 149.960938 "/>
<path style="fill:none;stroke-width:1.2;stroke-linecap:butt;stroke-linejoin:miter;stroke:rgb(0%,0%,0%);stroke-opacity:1;stroke-miterlimit:10;" d="M 214.75 160.273438 L 213.308594 169.621094 "/>
<path style="fill:none;stroke-width:1.2;stroke-linecap:butt;stroke-linejoin:miter;stroke:rgb(100%,0%,0%);stroke-opacity:1;stroke-miterlimit:10;" d="M 213.308594 169.621094 L 211.867188 178.964844 "/>
<path style="fill:none;stroke-width:1.2;stroke-linecap:butt;stroke-linejoin:miter;stroke:rgb(0%,0%,0%);stroke-opacity:1;stroke-miterlimit:10;" d="M 232.375 153.425781 L 235.257812 134.734375 "/>
<path style="fill:none;stroke-width:1.2;stroke-linecap:butt;stroke-linejoin:miter;stroke:rgb(0%,0%,0%);stroke-opacity:1;stroke-miterlimit:10;" d="M 232.375 153.425781 L 239.75 159.34375 "/>
<path style="fill:none;stroke-width:1.2;stroke-linecap:butt;stroke-linejoin:miter;stroke:rgb(100%,0%,0%);stroke-opacity:1;stroke-miterlimit:10;" d="M 239.75 159.34375 L 247.121094 165.265625 "/>
<path style="fill:none;stroke-width:1.2;stroke-linecap:butt;stroke-linejoin:miter;stroke:rgb(0%,0%,0%);stroke-opacity:1;stroke-miterlimit:10;" d="M 235.257812 134.734375 L 220.511719 122.894531 "/>
<path style="fill:none;stroke-width:1.2;stroke-linecap:butt;stroke-linejoin:miter;stroke:rgb(0%,0%,0%);stroke-opacity:1;stroke-miterlimit:10;" d="M 230.996094 137.019531 L 219.199219 127.546875 "/>
<path style="fill:none;stroke-width:1.2;stroke-linecap:butt;stroke-linejoin:miter;stroke:rgb(0%,0%,0%);stroke-opacity:1;stroke-miterlimit:10;" d="M 235.257812 134.734375 L 244.070312 131.308594 "/>
<path style="fill:none;stroke-width:1.2;stroke-linecap:butt;stroke-linejoin:miter;stroke:rgb(100%,0%,0%);stroke-opacity:1;stroke-miterlimit:10;" d="M 244.070312 131.308594 L 252.886719 127.882812 "/>
<path style="fill:none;stroke-width:1.2;stroke-linecap:butt;stroke-linejoin:miter;stroke:rgb(100%,0%,0%);stroke-opacity:1;stroke-miterlimit:10;" d="M 252.886719 127.882812 L 254.324219 118.539062 "/>
<path style="fill:none;stroke-width:1.2;stroke-linecap:butt;stroke-linejoin:miter;stroke:rgb(0%,0%,0%);stroke-opacity:1;stroke-miterlimit:10;" d="M 254.324219 118.539062 L 255.765625 109.191406 "/>
<path style=" stroke:none;fill-rule:nonzero;fill:rgb(100%,100%,100%);fill-opacity:1;" d="M 248.886719 122.382812 L 256.886719 122.382812 L 256.886719 133.382812 L 248.886719 133.382812 Z M 248.886719 122.382812 "/>
<g style="fill:rgb(100%,0%,0%);fill-opacity:1;">
  <use xlink:href="#glyph0-1" x="248.886719" y="131.045898"/>
</g>
<path style="fill:none;stroke-width:1.2;stroke-linecap:butt;stroke-linejoin:miter;stroke:rgb(100%,0%,0%);stroke-opacity:1;stroke-miterlimit:10;" d="M 247.121094 165.265625 L 255.9375 161.839844 "/>
<path style="fill:none;stroke-width:1.2;stroke-linecap:butt;stroke-linejoin:miter;stroke:rgb(0%,0%,0%);stroke-opacity:1;stroke-miterlimit:10;" d="M 255.9375 161.839844 L 264.75 158.417969 "/>
<path style=" stroke:none;fill-rule:nonzero;fill:rgb(100%,100%,100%);fill-opacity:1;" d="M 243.121094 159.765625 L 251.121094 159.765625 L 251.121094 170.765625 L 243.121094 170.765625 Z M 243.121094 159.765625 "/>
<g style="fill:rgb(100%,0%,0%);fill-opacity:1;">
  <use xlink:href="#glyph0-1" x="243.121094" y="168.428711"/>
</g>
<path style="fill:none;stroke-width:1.2;stroke-linecap:butt;stroke-linejoin:miter;stroke:rgb(100%,0%,0%);stroke-opacity:1;stroke-miterlimit:10;" d="M 211.867188 178.964844 L 219.238281 184.886719 "/>
<path style="fill:none;stroke-width:1.2;stroke-linecap:butt;stroke-linejoin:miter;stroke:rgb(0%,0%,0%);stroke-opacity:1;stroke-miterlimit:10;" d="M 219.238281 184.886719 L 226.613281 190.808594 "/>
<path style=" stroke:none;fill-rule:nonzero;fill:rgb(100%,100%,100%);fill-opacity:1;" d="M 207.867188 173.464844 L 215.867188 173.464844 L 215.867188 184.464844 L 207.867188 184.464844 Z M 207.867188 173.464844 "/>
<g style="fill:rgb(100%,0%,0%);fill-opacity:1;">
  <use xlink:href="#glyph0-1" x="207.867188" y="182.12793"/>
</g>
</g>
</svg>

<svg xmlns="http://www.w3.org/2000/svg" xmlns:xlink="http://www.w3.org/1999/xlink" width="300pt" height="300pt" viewBox="0 0 300 300"><defs><symbol overflow="visible"><path d="M.453 1.594v-7.938h4.5v7.938zm.5-.5h3.5v-6.938h-3.5zm0 0"/></symbol><symbol overflow="visible" id="a"><path d="M3.547-5.953c-.65 0-1.164.242-1.547.72-.375.48-.563 1.13-.563 1.952 0 .835.188 1.49.563 1.967.383.48.898.72 1.547.72.644 0 1.156-.24 1.53-.72.376-.476.564-1.132.564-1.968 0-.822-.187-1.474-.562-1.954-.375-.477-.887-.72-1.53-.72zm0-.734c.914 0 1.648.312 2.203.937.55.617.828 1.438.828 2.47 0 1.042-.277 1.87-.828 2.483-.555.617-1.29.922-2.203.922-.93 0-1.668-.305-2.22-.922C.774-1.41.5-2.237.5-3.28c0-1.033.273-1.853.828-2.47.55-.625 1.29-.938 2.22-.938zm0 0"/></symbol><symbol overflow="visible" id="b"><path d="M.89-6.563h.876v2.688H5v-2.688h.89V0H5v-3.125H1.766V0H.89zm0 0"/></symbol></defs><g><path fill="#fff" d="M0 0h300v300H0z"/><path d="M35.25 142.172l14.746 11.84M49.996 154.012l17.63-6.852M67.625 147.16l14.746 11.844M82.37 159.004l17.63-6.852M100 152.152l17.625-6.85M103.37 155.613l14.107-5.48M100.148 147.32l14.102-5.48M117.625 145.3l17.63-6.847M135.254 138.453l2.883-18.69" stroke-width="1.2" stroke="#000" stroke-miterlimit="10" fill="none"/><path d="M150 150.293l-7.375-5.922" stroke-width="1.2" stroke="#f00" stroke-miterlimit="10" fill="none"/><path d="M142.625 144.37l-7.37-5.917M138.137 119.762l17.625-6.852M141.512 123.223l14.1-5.48M155.762 112.91l14.746 11.84M170.508 124.75l-2.88 18.69M170.508 124.75l8.816-3.422" stroke-width="1.2" stroke="#000" stroke-miterlimit="10" fill="none"/><path d="M179.324 121.328l8.813-3.426" stroke-width="1.2" stroke="#f00" stroke-miterlimit="10" fill="none"/><path d="M167.63 143.44l-8.817 3.427" stroke-width="1.2" stroke="#000" stroke-miterlimit="10" fill="none"/><path d="M158.813 146.867L150 150.293" stroke-width="1.2" stroke="#f00" stroke-miterlimit="10" fill="none"/><path d="M167.63 143.44l14.745 11.845" stroke-width="1.2" stroke="#000" stroke-miterlimit="10" fill="none"/><path d="M146 144.793h8v11h-8zm0 0" fill="#fff"/><use xlink:href="#a" x="146" y="153.456" fill="#f00"/><path d="M182.375 155.285l-1.44 9.344" stroke-width="1.2" stroke="#000" stroke-miterlimit="10" fill="none"/><path d="M180.934 164.63l-1.442 9.347" stroke-width="1.2" stroke="#f00" stroke-miterlimit="10" fill="none"/><path d="M172.492 168.477h15v11h-15zm0 0" fill="#fff"/><g fill="#f00"><use xlink:href="#b" x="172.492" y="177.14"/><use xlink:href="#a" x="179.507" y="177.14"/></g><path d="M188.137 117.902l7.375 5.922" stroke-width="1.2" stroke="#f00" stroke-miterlimit="10" fill="none"/><path d="M195.512 123.824l7.37 5.918" stroke-width="1.2" stroke="#000" stroke-miterlimit="10" fill="none"/><path d="M184.137 112.402h8v11h-8zm0 0" fill="#fff"/><use xlink:href="#a" x="184.137" y="121.065" fill="#f00"/><path d="M202.883 129.742L200 148.434M206.992 132.29l-2.304 14.952M220.512 122.895l-17.63 6.847M200 148.434l14.75 11.84M214.75 160.273l17.625-6.847M214.898 155.44L229 149.96M214.75 160.273l-1.44 9.348" stroke-width="1.2" stroke="#000" stroke-miterlimit="10" fill="none"/><path d="M213.31 169.62l-1.443 9.345" stroke-width="1.2" stroke="#f00" stroke-miterlimit="10" fill="none"/><path d="M232.375 153.426l2.883-18.692M232.375 153.426l7.375 5.918" stroke-width="1.2" stroke="#000" stroke-miterlimit="10" fill="none"/><path d="M239.75 159.344l7.37 5.922" stroke-width="1.2" stroke="#f00" stroke-miterlimit="10" fill="none"/><path d="M235.258 134.734l-14.746-11.84M230.996 137.02l-11.797-9.473M235.258 134.734l8.812-3.425" stroke-width="1.2" stroke="#000" stroke-miterlimit="10" fill="none"/><path d="M244.07 131.31l8.817-3.427M252.887 127.883l1.437-9.344" stroke-width="1.2" stroke="#f00" stroke-miterlimit="10" fill="none"/><path d="M254.324 118.54l1.442-9.35" stroke-width="1.2" stroke="#000" stroke-miterlimit="10" fill="none"/><path d="M248.887 122.383h8v11h-8zm0 0" fill="#fff"/><use xlink:href="#a" x="248.887" y="131.046" fill="#f00"/><path d="M247.12 165.266l8.817-3.426" stroke-width="1.2" stroke="#f00" stroke-miterlimit="10" fill="none"/><path d="M255.938 161.84l8.812-3.422" stroke-width="1.2" stroke="#000" stroke-miterlimit="10" fill="none"/><path d="M243.12 159.766h8v11h-8zm0 0" fill="#fff"/><use xlink:href="#a" x="243.121" y="168.429" fill="#f00"/><path d="M211.867 178.965l7.37 5.922" stroke-width="1.2" stroke="#f00" stroke-miterlimit="10" fill="none"/><path d="M219.238 184.887l7.375 5.922" stroke-width="1.2" stroke="#000" stroke-miterlimit="10" fill="none"/><path d="M207.867 173.465h8v11h-8zm0 0" fill="#fff"/><use xlink:href="#a" x="207.867" y="182.128" fill="#f00"/></g></svg>
